X:1
T:Wagner - Piano Sonata in A-Flat.
T:Eine Sonate fur das Album von Frau M.W.
%%score { ( 1 3 ) | ( 2 4 5 ) }
L:1/8
Q:1/4=40
M:3/4
K:Ab
V:1 bass nm="Piano" snm="Pno."
V:3 bass 
V:2 bass 
V:4 bass 
V:5 bass 
V:1
!p!"^Ruhig" E,>E, |!<(! (E,2 A,3 G, | B,3 A,B,>C!<)! |!mp!!>(! D2 A,3 B,!>)! | %4
!p! !fermata!C4)!p! (C>E, | E,2 D,)(D,F,>B,, |!p! C,3) C,E,>D, | C,2 B,,C,D,>E, | %8
 z2 z!<(! (E,C>A,!<)! |!mp!!>(! G,2!>)! F,)!p!(A,C>F, | B,3) (G,"_dim."B,>A, | G,2 F,)(G,A,>=D, | %12
!pp! E,3) z (B,>C |!<(! D4)!<)![K:treble]!p! (D>E | F4)"_poco" F>G |"_cresc." [FA]4 (A>B | %16
!f!"_poco" [C=EGc]6) | z"^rit."[Q:1/4=35] (=EG[Q:1/4=33]c[Q:1/4=30]=e[Q:1/4=25]g | %18
!mp!"_dim." c'2) z2!p! (.g2 | .=e'3) !fermata!z[K:bass][Q:1/4=40]!p!!>(! (!fermata!C>_E,!>)! | %20
!p! E,2 D,)(D,F,>B,, |!p!"_piu" C,3) (C,E,>D, | %22
 C,2!pp! B,,)"^riten."[Q:1/4=35](C,[Q:1/4=30]!pp!D,>[Q:1/4=25]G,, |[Q:1/4=50] A,,3) z!p! E,>E, | %24
 (E,2 A,3 G, | B,4) _F,>F, |!<(! (_F,2 B,3 A, |!mp! C4)!<)! A,>A, | (A,2!>(! [_G,E]3 [F,D] | %29
 [E,C]>!>)!!p![F,D] [_G,E]2) A,>A, | ([F,A,]2 [A,F]3 [_G,E] | [F,D]>[_G,E] [A,F]2) A,>A, | %32
"_cresc." A,2[K:treble] (_G3 F | FE) (A3 _G | _GF) (B3 A | A_G) (e3 d | dc) (e3 d | %37
 dc)"_piu"!f! (e3 =d | %38
 =dc)"^rit."[Q:1/4=40]!ff! (!^![=e=ac'=e']3[Q:1/4=10] [d=d'])[Q:1/4=30][Q:1/4=20] || %39
[K:C][Q:1/4=50]!p!"^Ruhig wie vorher"!>(! ([cc']2 [Bb]2 [Aa]2!>)! |!p! [Gg]4) (!>![ee']>[dd'] | %41
!p! [cc']2 [Bb]2 [Aa]2 | [Gg]4)!p! ([Gg]>[^G^g] |!<(! [Aa]2 [cc']2 [ff']2!<)! | %44
!mp!!>(! [ff']2 [ee']2)!>)!!p! ([Gg]>[^G^g] |!<(! [Aa]2 [cc']2[Q:1/4=40] [ff']2!<)! | %46
!mp!!>(! e'2 d'2)!>)! (c'b |!p![Q:1/4=50] e'>b e'2- e'/ e'/ ^f'/4e'/4^d'/4e'/4 | ^g'>e' b3) (b | %49
!p! c'>a c'2- c'/ c'/ d'/4c'/4b/4c'/4 | e'>c' (g3) ^f |"^ausdrucksvoll" =fdafd>c | %52
 c_Bf!<(!dB>A!<)! | %53
!mp![Q:1/4=45]!>(! ^G)"^rit."[Q:1/4=40](f!>)![Q:1/4=35]"_dim."e[Q:1/4=30]d[Q:1/4=25]=B>e) | %54
!p!"^(wie  gesungen)"[Q:1/4=40] (c2[Q:1/4=50] e2 f2[Q:1/4=45][Q:1/4=43][Q:1/4=47] | %55
!<(! g3 ^gab!<)! |!mp!!>(! b2 c')!>)!!p!"_dim."(efg |!>(! ^gafed>c!>)! | %58
!p! c"^rit."[Q:1/4=40]Bg[Q:1/4=30]^f=f[Q:1/4=10]d/) z/ |[Q:1/4=50]!p! (c2 e2"_cresc." [^F^f]2 | %60
 [Gg]3 [Aa][^A^a][Bb] |!f! [Bb]2 [cc'])!p!!<(!([Ee][Ff][Gg]!<)! | %62
!mp!!<(! [^G^g]2 [Aa])([Ff][Ee][Dd]!<)! |!f! [^c^c']2 [dd'])([=c=c'][Bb][Aa]) | %64
!p! (a>g) (a>g) (a>g) |{/c} (ge'd'c'ea) | %66
!<(! (a>g) (_b>a)!<)!!mp!!>(! (=b!>)!!p![Q:1/4=40]a/[Q:1/4=30]g/) | %67
!p!"^(ruhig)" (g/[Q:1/4=35]e/[Q:1/4=40]e'/[Q:1/4=45]d'/[Q:1/4=50] c'/b/a/_a/ g/^f/=f/e/) | %68
 (e/d/a/g/ f/e/d/c/ B/A/G/^F/) | G/E/e/d/ c/B/"_l.H." ([eg][ce][Gc]) |{/G} [Bf]3 ([fa][df][Bd]) | %71
"_dolce" [Gceg]3 ([ge'g'][ec'e'][cgc']) | [fbf']3 ([af'a'][fd'f'][Q:1/4=40][dbd']) | %73
[Q:1/4=30] [ebe']3 ^G/B/ e/^g/b/[Q:1/4=40]e'/[Q:1/4=35][Q:1/4=40][Q:1/4=45][Q:1/4=50] | %74
 ^g' z!p! (^G7/2 B,/ ||[K:Ab] B,3) E/_G/ B/e/_g/b/ | e' z!p! E7/2 _G,/ | %77
 F,2- F,/A,/_C/=D/ F/A/_c/=d/ | (f/a/_c'/a/ f/=d/_c/A/[Q:1/4=37] F/=D/[Q:1/4=35]_C/[Q:1/4=40]A,/) | %79
!p! =G,4 (B,>=C |[Q:1/4=45] [B,_D]4)[Q:1/4=40] (D>E |[Q:1/4=50]"_cresc." [F,B,DF]4) ([F,F]>[G,G] | %82
 [A,CFA]4)[Q:1/4=40] ([A,A]>[B,B] | %83
!f! !^![C=EGc]2)"^Von    hier    an    sehr   allmahlich   etwas    bewegter   Im   Vortrag   und" z/[Q:1/4=53] (d/c/[Q:1/4=80]B/ A/G/B/A/[Q:1/4=43][Q:1/4=47] | %84
 G/F/=E/F/ G/F/E/D/ C/B,/A,/B,/ | %85
"^Zeitmaß"!<(! C/D/C/=B,/!<)!!ff!!>(! C/D/C/_B,/)!>)!!f!"^ausdrucksvoll" (!>!G>B,) | %86
 (!>!B,2!<(! A,)(A,C>F,)!<)! |!f! x2 z/!p! (=A,/B,/C/ D/E/F/_G/ | F/_G/B/G/ F/E/D/C/ E/D/C/B,/) | %89
!>(! (=A,/C/D/E/!>)!!p! F/_G/F/E/)"_marcato" ([Cc]>[E,E]) | %90
[K:bass] ([E,E]2!<(! [D,D])([D,D][F,F]>B,!<)! || %91
[M:2/4]!f!"^Noch   und   nach   wachsende   Bewegung"!>(! [C,=E,G,C]2) z2!>)! | %92
!mp! z2[K:treble] (!>![Gg]>B) | (BA- A/A/c/F/ | G2- G/G/B/A/ | GF- F/G/A/B/ | G2) (!>![Gg]>B | %97
 BA- A/A/c/F/ |!>(! G2-)!>)!!p! G/(G/B/A/ | GF- F/A/c/B/ | AG- G/B/d/c/ |"_cresc." BA- A/c/e/d/ | %102
 cB- B/d/f/e/ | d/c/e/a/)!f!"^(immer bewegter)" !>!c'>e | e=d- d/d/f/=B/ | c2- c/!p!(c/e/_d/ | %106
 c/B/=A/B/ c/d/f/d/ |!<(! c/)(=B/c/=e/!<)!!f! !^!g>)_B | BA- A/A/c/F/ | G2- G/"_dim."(G/B/A/ | %110
 GF- F/G/A/=D/ |!mp! !>!E/)!f!(C/4E/4 A/4c/4e/4a/4!ff! c'>)e | e!f!=d- d/d/f/=B/ | c2- c/c/e/_d/ | %114
!<(! (6:4:6(c/B/=A/B/c/d/)!<)!!f! !>!fe/d/ | (3(c/C/E/ A/4c/4e/4a/4!ff! c'>)e | e=d- d/d/f/=B/ | %117
 c (6:4:6(C/4E/4A/4c/4e/4a/4)!ff! c'>e |"^(immer   schneller)" e=d !^!=a>c | =B2!ff! ^f>=A | %120
 =AG !^!=e>G | ^F2!ff! _d>_F | _FE !^!B>D | C2!p! (G>B, | B,A,- A,/)(C/E/D/ | CB,- B,/)(D/F/E/ | %126
 DC- C/)(E/_G/F/) |"_cresc." E/D/A/_G/ F/E/B/A/ | _G/F/c/B/ A/G/d/_c/ | B/A/e/d/ _c/B/f/e/ | %130
 d/=c/_g/!f!e/!f! [=Ac=a]>[Cc] | ([C^F=Ac][=B,=B]/) z/ [Ac=a]>[Cc] | %132
 ([C^F=Ac][=B,=B]/)"_piu" z/!f! [c_e^fc']>[Ee] | ([E=Ace][=D=d]/) z/ [ce^fc']>[Ee] | %134
 ([E=Ace][=D=d]/) z/!ff! [e_g=ae']>[_Gg] | ([_Gce_g][Ff]/) z/ [e_g=ae']>[_Gg] | %136
 ([_Gce_g][Ff]/) z/!ff! [^f=ac'e'^f']2 |!ff!!8va(! [=ac'e'^f'=a']2!ff! [c'e'f'a'c''-]2 | %138
 (6:4:6c''/[Q:1/4=90]=a'/^f'/e'/c'/=a/!8va)! (6:4:6^f/e/c/=A/^F/E/ | %139
[K:bass] (6:4:6C/=A,/^F,/E,/C,/=A,,/ z2 | %140
[K:treble][Q:1/4=80] z !^![e^f=ae']!^![=d=f_a=d']!^![cfac'] | %141
 [=ac'e'=a'-]2 (6:4:6a'/[Q:1/4=90]^f'/e'/c'/a/^f/ | (6:4:6e/c/=A/^F/E/C/ x2 | %143
[Q:1/4=80] z!ff! !^![E,=A,CE]!^![E,A,=D]!^![E,A,C] | !^![_A,C_A] [Aa]/>[CAc]/ ([CAc][=B,=B]/) z/ | %145
 z [Aa]/>[CAc]/ ([CAc][=B,=B]/) z/ |({/Gc)e} (!^!g(3e/c/G/ (3E/C/G,/(3A,/G,/F,/) | %147
!ff! z [cc']/>[Ece]/ ([Ece][=D=d]/) z/ | z [cc']/>[Ece]/ ([Ece][=D=d]/) z/ | %149
({/Gc)e} (6:4:6g/e/c/G/E/C/ x z | %150
({/=B,=D)} (6:4:6A/F/_D/[I:staff +1]B,/A,/F,/ (3=D,/=B,,/A,,/[I:staff -1] z | %151
[K:bass]!f! (C,-(3C,/B,,/A,,/ (6:4:6G,,/^F,,/G,,/"_dim."A,,/G,,/A,,/) | %152
[Q:1/4=70] (C,-(3C,/B,,/A,,/ (6:4:6G,,/^F,,/G,,/A,,/G,,/A,,/) | %153
 (C,-"^rall."(3C,/[Q:1/4=60]G,,/[Q:1/4=50]A,,/) (C,-(3C,/[Q:1/4=45]G,,/[Q:1/4=40]A,,/ | %154
!p!"_piu" C,2)[Q:1/4=35] (G,,A,, |"^lento" C,2)[Q:1/4=30] (G,,A,, |!pp! C,4-) | %157
 C,2[K:treble]!p!"_dolce"[Q:1/4=30] ([G,G][A,A]) || %158
[M:3/4][Q:1/4=28]"_etwas zogurnd""^Erstes Zeitmaß" ([B,_GB]2[Q:1/4=27] [Dd]2[Q:1/4=26] [G_g]2) | %159
[Q:1/4=20] (!fermata![_G_g]2 !fermata![Ff]2)[Q:1/4=30]!p! (A>=A | B2 d2 _g2) | %161
[Q:1/4=20]!p! (!fermata!_g2 !fermata!f2)[Q:1/4=35] (f>e |!p! d2 c2 B2 | %163
[Q:1/4=37] A4) ([ff']>[ee'] |!p! [dd']2 [cc']2 [Bb]2) | ([_Gcea]4[Q:1/4=40] _g2) | %166
!p!"^zart" ([Ff]>c f2- f/ f/ =g/4f/4=e/4f/4 | =a>f c3) c | (d>B d2- d/ d/ e/4d/4c/4d/4 | %169
 f>d A7/2 =G/ |"^zogurnd" _GEedc>B) |!<(! (BA_gfe>d)!<)! | %172
"^rit."!mp!"_dim." (dc[Q:1/4=33]b[Q:1/4=30]a[Q:1/4=25]_gz/e/) | %173
[Q:1/4=30]!p!"^a tempo" (d2[Q:1/4=40] f2 [_G_g]2[Q:1/4=33][Q:1/4=35][Q:1/4=45][Q:1/4=50] | %174
 [Aa]3 [=A=a]"_cresc."[Bb][cc'] | !>![cc']2 [dd'])([cc'][dd']>[=d=d'] | %176
!f! [=d=d']2"_piu" [ee'])!f!([ff'][_g_g']>[=g=g']) | !wedge![aa']2!p! (F7/2 A,/) | %178
 (A,2 _G,)G,B,>E, |!p! (d2 f2 [=G=g]2 |"_cresc." [Aa]3 [Bb][=B=b][cc'] | %181
 [cc']2 [dd'])([ee'][ff']>[_g_g']) |!f!!8va(! [=g=g']2!f!"_piu" [aa'][=a=a'][bb']>[c'c''] | %183
!ff! !wedge![d'd'']2!8va)!!p! (!>!F7/2 A,/) |"_dim." (A,2 _G,)G,B,>E, | %185
!p!"_dolce" z (.[Aa] .[A=g].[Af].[Ae]>.=d | c2 B)!<(! z z2!<)! | %187
 z!>(! (.[cc'] .[Bb].[=A=a]!>)!!p!.[_A_a]>.[Gg] | f2 e)!<(! z z2!<)! | %189
!mp! z!>(! (.[ff'] .[ee'].[=d=d'].[cc']>.[Bb] | .[=A=a].[_A_a].[Gg].[Ff].[Ee].[=D=d])!>)! | %191
!p!!<(! ([Ee]2 [Gg]2 [Aa]2 | [Bb]3 [=B=b][cc']>[=d=d']!<)! |!f! [=d=d']2 [ee'])([=A=a][Bb][=B=b] | %194
"_dim." !>![=B=b]2!>(! [cc'][Q:1/4=47][_A_a][Q:1/4=45][Gg][Q:1/4=40][Ff])!>)! | %195
!p!"^beruhigend" [Begb]3 ([gb][eg][Be])[Q:1/4=60] | [B=da]3 ([ac'][fa][df]) | %197
({/Be)g} (3(!^!bg'f' (3e'=d'c' (3bag) |{/A} (3(fc'b (3agf (3e=dc) | %199
({/=DF)} =B3!<(! ([FA][=DF][=B,D])!<)! |!p!!>(!({/CE)} (3(!^!Gag (3f!>)!!p!e=d (3cBA) | %201
{/E} !^!G3 ([DF][B,D][G,B,]) |[K:bass] [D,G,E]3 ([B,D][G,B,][E,G,]-) | %203
 (3z!>(! (FE (3DCB, (3A,G,F,)!>)! |!p!"_piu" (3(E,=D,E, (3F,E,D, (3E,F,D, | %205
[Q:1/4=55]"^rit." E,)z/[Q:1/4=50](=D,/ F,)z/!pp!(D,/[Q:1/4=40] E,>)"^a tempo"E, | %206
 (!>!E,2!<(! A,3 G, | B,3 A,B,>C!<)! |!mp!!>(! D2 A,3 B,!>)! | %209
!p! C4)!f![Q:1/4=50]"_rinforz." (C>D | [B,E]2 B,3 C | [A,D]2 A,3 B, | %212
 C2)!pp!"^rit."[Q:1/4=40] (A,3 B, | C4)[K:treble]!f!"^a  tempo"[Q:1/4=50] [Cc]>[Dd] | %214
 [Ee]2!>(! [B,B]3 [Cc]!>)! |!p! [Bd]4!f! [Dd]>[Ee] | [Ff]2!>(! [Cc]3 [Dd]!>)! | %217
!p! e4"_dolce" (B>c | d2 cBAG |({/EA)} e4) (3(ABc | edcBA>G) | (f2 e2)!f! ([Ee]>[Ff] | %222
!f! [_GB_g]2 [Dd]3 [Ee] | f4)!mf!"_dim." (c>=d | =e2 =B3 ^c) |!p! !fermata!_e4"_dolce" (c>d | %226
 e2 dcB>e | f2!>(! ecE>c)!>)! |!pp! (e6 |!<(! [CA]2) z2!p! E>E!<)! |!<(! E2 A3 G!<)! | %231
[Q:1/4=15]!mp! (3z[Q:1/4=50]!>(! (_f'd' (3bg_f (3dBA | (3G=fe (3dBG (3EDB, | %233
 [A,C]2) z2!>)!!p! e>e |!<(! (e2 a3 g!<)! |!mp!!p! b6) | %236
({/B_d)g} (3!^!b[Q:1/4=60](f'e' (3d'c'b (3agf | (3e=eg (3f_ed (3cBA | %238
"^immer ruhiger" (3GBd (3fed (3cBA | %239
[Q:1/4=55] (3GFE"^rall." (3=D_DC[Q:1/4=50] (3E[Q:1/4=45]D[Q:1/4=43]B, | %240
[Q:1/4=40]"^tempo" A,2) z2 (((c>E | E2 D))DF>B, | C3) (CE>D | C2 B,CD>E) | %244
!<(! C4!<)!!>(! (c>E!>)! |!p!!>(! E2 D)(D_F>B,!>)! |!p!"_piu" C3) (CE>D |!>(! C2 B,!>)!!pp!CD>G, | %248
 C2) z!mf! (c!^!e>B | d[Q:1/4=25]c) z!pp! CD>[Q:1/4=10]G, |[Q:1/4=40] x4 z2 | %251
 z!p!!>(! (CEAc[Q:1/4=30]e!>)! |!pp! a2) z2 (.[ce]2 | .[ac']2) z2 (.[CE]2 | .[Ac]2) z2 x2 | z6 | %256
 x2 z2 z2 | x4 !fermata!z2 |] %258
V:2
 z2 | (C,6 | D,4 _F,>E, | D,6) | !fermata![A,,,A,,]6 | [G,,,G,,]6 | [F,,,F,,]6 | %7
 (D,,4 [E,,,E,,]) z | [A,,,A,,]6 | [A,,=D,]6 | ([G,,E,]4 [C,,C,]2 | [A,,,A,,]4 [B,,,B,,]) z | %12
 (E,,G,,B,,E,) z2 | (G,,B,,E,G,) z2 | ([B,,,B,,] D,F,B,) z2 | (F,,C,F,A,) C2 | %16
!ped! (C,,=E,,G,,C,=E,G,) | C3 =EGE | x6 | x3!ped! !fermata!z!ped-up! !fermata!z2 | ([G,,,G,,]6 | %21
 [F,,,F,,]6 | D,,4 [E,,,E,,]3/2) z/ | (.A,,,.A,,,.A,,,.[A,,,A,,].[A,,,A,,].[A,,,A,,]) | %24
 (.A,,.A,,.A,,.A,,.A,,.A,,) | (.[A,,,A,,].[A,,,A,,].[A,,,A,,].[A,,,A,,].[A,,,A,,].[A,,,A,,]) | %26
 (.A,,.A,,.A,,.A,,.A,,.A,,) | (.[A,,,A,,].[A,,,A,,].[A,,,A,,].[A,,,A,,].[A,,,A,,].[A,,,A,,]) | %28
 (.A,,.A,,.A,,.A,,.A,,.A,,) | (.A,,.A,,.A,,.A,,.A,,.A,,) | (.A,,.A,,.A,,.A,,.A,,.A,,) | %31
 (.A,,.A,,.A,,.A,,.A,,.A,,) | A,,A,,A,,A,,A,,A,, | A,,A,,A,,A,,A,,A,, | A,,A,,A,,A,,A,,A,, | %35
 A,,A,,A,,A,,A,,A,, | A,,A,,A,,A,,A,,A,, |!ped! [=A,,,=A,,]3 (C,!ped!E,^F,!ped-up! | %38
!ped! =A,2) [^F,A,C=E]!^![=D,,=D,] C^F!ped-up! ||[K:C] ([D=F]4 [CE]2 | [B,D]2 [DF]2 [C^F]2 | %41
 [D=F]2) ([DF]2 [CE]2 | [B,D]2 [DF]2 [B,D]2) | ([CF]2 [A,C]2 [F,A,]2 | [C,G,C]4) ([CE][B,D] | %45
 [A,C]2 [F,A,]2 [D,A,D]2 | [G,B,F]4) z2 | z2 [B,E]2 [^G,B,]2 | z2 [^G,E]2!>(! [B,^G]2!>)! | %49
 z2 [CE]2 [A,C]2 | z2 [E,C]2 [G,E]2 | z2 [F,D]4 | z2 [_B,D]4 | [E,=B,D]2 [E,^G,B,]2 [D,G,D]2 | %54
 [A,C][A,C][A,C][A,C][A,CD][A,CD] | [G,CE][G,CE][G,CE][G,CE] [F,G,D][F,G,D] | %56
 [E,G,C][E,G,C][E,G,C][E,G,C][E,G,C][E,G,C] | [D,F,B,][D,F,B,][D,F,B,][D,F,B,][D,F,B,][D,F,C] | %58
 ([G,,G,]2 [G,B,]2 [B,D]3/2) z/ | [A,,A,] [A,C][A,C][A,C][A,^CD][A,CD] | %60
 [E,G,B,E][E,G,B,E][E,G,B,E][E,G,B,E][E,G,B,][E,G,B,] | %61
 [C,E,G,B,][C,E,G,B,][C,E,G,C][C,E,G,C][C,E,G,C][C,E,G,C] | %62
 [F,,A,,D,F,][F,,A,,D,F,][F,,A,,D,F,][F,,A,,D,F,][F,,A,,D,F,][F,,A,,D,F,] | %63
 [D,,^F,,A,,D,] [D,^F,A,=C][D,F,A,C][D,F,A,C][D,F,A,C][D,F,A,C] | (=F2 E2 [DF]2 | [CE]6) | %66
 (F2 E2 F2) | ([G,CE]3 [EG][CE][G,C] | [G,B,F]3) ([FA][DF][B,D]) |{/E} [G,C]3 x3 | %70
{/G,} (E/D/A/G/ F/E/D/C/ B,/A,/G,/^F,/) |{/G,,} (G,/E,/E/D/ C/B,/A,/_A,/ G,/^F,/=F,/E,/) | %72
{/G,,} (E,/D,/A,/G,/ F,/E,/D,/C,/ B,,/A,,/^F,,/G,,/) | %73
!ped!{/^G,,,} ^G,,/B,,/E,/^G,/ B,/E/ z z2!ped-up! | z6 || %75
[K:Ab]!ped! B,,,/E,,/_G,,/B,,/ E,/_G,/ z z2!ped-up! | z6 | %77
!ped! (B,,,/=D,,/)F,,/B,,/ =D,/ z/ z z2!ped-up! | z6 | (E,,=G,,B,,E, =G,2) | (G,,B,,E,G, B,2) | %81
 (B,,,D,,F,,B,,- [B,,D,]2) | [F,,,F,,]C,,F,,A,,- C,2 | %83
!ped! (C,,/=E,,/G,,/C,/ =E,/G,/C/B,/ A,/G,/B,/A,/!ped-up! | %84
 G,/F,/=E,/F,/ G,/F,/E,/D,/ C,/B,,/A,,/B,,/ | C,/D,/C,/=B,,/ C,/D,/C,/_B,,/ A,,/G,,/F,,/=E,,/ | %86
 F,,/G,,/A,,/=E,,/ F,,/G,,/A,,/B,,/ C,/A,,/G,,/F,,/) | %87
 (B,,,/D,,/_G,,/B,,/ D,/=A,,/B,,/C,/ D,/E,/F,/_G,/ | F,/_G,/B,/G,/ F,/E,/D,/C,/ E,/D,/C,/B,,/) | %89
 (=A,,/C,/D,/E,/ F,/_G,/F,/E,/ D,/C,/B,,/A,,/ | %90
 [B,,,B,,]/C,,/D,,/=A,,,/ B,,,/C,,/D,,/E,,/ F,,/D,,/C,,/B,,,/) || %91
[M:2/4] (C,,/=E,,/G,,/C,/ D,/B,,/=E,/D,/ | G,/=E,/B,/G,/ E,/D,/B,,/G,,/) | %93
 (F,,/A,,/C,/F,/) (=D,/F,/A,/=D/) | (E,/G,/B,/E/) (C,/E,/A,/C/) | %95
 (A,,/C,/F,/A,/) (B,,/=D,/F,/B,/) | (D,/E,/G,/B,/) (C,/=E,/G,/C/) | %97
 (F,,/A,,/C,/F,/) (=D,/F,/A,/=D/) | (=B,,/=D,/G,/=B,/) (C,/E,/A,/C/) | %99
 A,,/C,/F,/A,/ F,,/A,,/C,/F,/ | D,,/F,,/B,,/D,/ B,,/D,/G,/B,/ | C,/E,/A,/C/ F,,/A,,/D,/F,/ | %102
 D,,/F,,/B,,/D,/ E,,/G,,/B,,/E,/ | A,,/C,/E,/A,/ C/A,/E,/C,/ | F,,/A,,/=D,/F,/ G,,/=B,,/D,/G,/ | %105
 A,,2 F,/A,/D/F/ | G,/B,/D/E/ E,/G,/B,/E/ | =E,2 C,2 | F,,2 =D,2 | E,2 C,2 | A,,2 B,,2 | C,2 A,,2 | %112
 F,,/A,,/=D,/F,/ G,,/=B,,/D,/G,/ | A,,/C,/E,/A,/ F,,/A,,/_D,/F,/ | D,2 E,2 | A,,2 F,,2 | %116
 ^F,,/=A,,/C,/^F,/ G,,/=B,,/=D,/G,/ | A,,2 =A,,2 | ^F,,2 =D,2 | ^D,2 =B,,2 | C,2 =B,,2 | %121
 ^A,,/^C,/^F,/^A,/ _G,,/B,,/D,/_G,/ | G,,/B,,/E,/=G,/ E,,/G,,/B,,/E,/ | %123
 =E,,/G,,/C,/=E,/ C,,/E,,/G,,/C,/ | F,,/A,,/C,/F,/ F,,/A,,/D,/F,/ | %125
 G,,/B,,/E,/G,/ E,,/G,,/B,,/E,/ | A,,2 F,,2 | B,,2 C,2 | D,2 E,2 | F,2 _G,2 | %130
 _G,2 [CE^F]!>![=E,,=E,] | ^D,2 !>![C^D^F]!>![=E,,=E,] | ^D,2 !>![_E^F=A]!>![G,,G,] | %133
 ^F,2 !>![E^F=A]!>![G,,G,] | ^F,2 !>![E_G=A]!>![B,,B,] | =A,2 !>![E_G=A]!>![B,,B,] | %136
 =A,2 [E^F=A][E,^F,=A,CE]- | [E,F,A,CE]!ff!!ped! [^F,=A,CE^F]2 [A,CE^F=A]- | x2!ped-up! %138
 [A,CEFA] z z2 | z2 (6:4:6^F,,/E,,/C,,/=A,,,/G,,,/^F,,,/ | %140
 E,, !^![E,^F,=A,CE]!^![E,F,A,CE]!^![E,F,A,CE] |!ped! [^F,=A,CE^F]3!ped-up! z | %142
 x2 (6:4:6=A,/^F,/E,/C,/=A,,/^F,,/ | (3E,,/C,,/=A,,,/ !^!^F,,,!^!F,,,!^!F,,, | %144
 !^![F,,_A,,=D,]3 !wedge![D,F,A,] | !^![F,,A,,=D,]3 !wedge![D,F,A,] | %146
!ped! ([C,E,G,]3 [=B,,=D,])!ped-up! | !^![^F,,=A,,C,E,]3 !wedge![=F,_A,C] | %148
 !^![^F,,=A,,C,E,]3 !wedge![=F,_A,C] |!ped! [G,,C,E,G,]2 (3G,/E,/C,/ x!ped-up! | %150
!ped! [G,,,G,,]3 (3F,,/E,,/=D,,/!ped-up! | %151
 (C,,-(3C,,/B,,,/A,,,/ (6:4:6G,,,/^F,,,/G,,,/A,,,/G,,,/A,,,/) | %152
 (C,,-(3C,,/B,,,/A,,,/ (6:4:6G,,,/^F,,,/G,,,/A,,,/G,,,/A,,,/) | %153
 (C,,-(3C,,/G,,,/A,,,/) (C,,-(3C,,/G,,,/A,,,/ | C,,2) (G,,,A,,, | C,,2) (G,,,A,,, | C,,4-) | %157
 C,,2 z2 ||[M:3/4] _G,2- [G,B,]2 [B,D]2 | !fermata![D,A,D]4 D[CE] | D2 B,4 | =D4 (_D2 | E4 D2) | %163
!p! (3(A,,,C,,E,, (3A,,C,E,) ([A,-D=G]2 | [E_G]4) [DF]2 | [CE]2 (3C,,E,,A,, (3C,E,A, | %166
 z2 C2 [F=A] z | z2 =A,2 [CF] z | z2 [F,B,]2 [DF] z | z2 [F,A,]2 [DF] z | z2 ([_G,B,]2 [B,E]2) | %171
 z2 ([A,D]2 [DF]2) | z2 ([CE]2 [E_G]3/2) z/ | [B,,B,] (D/F/) z ([B,D]/F/) z ([B,D]/F/) | %174
 z (D/F/) z (D/F/) z (C/E/) | z/ (A,/D/F/) z/ (A,/D/F/) z/ (F,/A,/D/) | %176
 z/ (C,/E,/A,/) z/ (C,/E,/A,/) z/ (C,/E,/A,/) | ([F,,A,,D,F,]4 [D,,D,]2 | [C,,C,]4) z2 | %179
 !^!F,(B,/D/) z (B,/D/) z ([B,D]/=E/) | z ([A,C]/F/) z (A,/C/) z ([_G,A,]/C/) | %181
 z/ (F,/A,/C/) z/ (F,/A,/D/) z/ (F,/A,/D/) | z/ (E,/A,/C/) z/ (E,/A,/C/) z/ (E,/A,/C/) | %183
 ([D,F,B,]4 =D,2) | [B,,E,]4- [B,,E,] z | [=D,F,]2 [B,=D]2 [DF]2 | z2 z A,C>F, | %187
!mp! z2 ([E,B,]2 [G,E-]2) | [B,E]3 (B,E>G, |{/=D,} A,4) ([F,=D]2 | [B,F]2) z2 z2 | %191
 (3[C,E,G,][C,E,G,][C,E,G,] (3[C,E,G,][C,E,G,][C,E,G,] (3[C,E,F,][C,E,F,][C,E,F,] | %192
 (3[B,,E,G,][B,,E,G,][B,,E,G,] (3[B,,E,G,][B,,E,G,][B,,E,G,] (3[B,,E,G,][B,,E,G,][B,,E,G,] | %193
 (3[=A,,C,E,_G,][A,,C,E,G,][A,,C,E,G,] (3[A,,C,E,G,][A,,C,E,G,][A,,C,E,G,] (3[A,,C,E,G,][A,,C,E,G,][A,,C,E,=G,] | %194
 (3[A,,C,E,F,][A,,C,E,F,][A,,C,E,F,] (3[A,,C,E,F,][A,,C,E,F,][A,,C,E,F,] (3[A,,C,E,F,][A,,C,E,F,][A,,C,E,F,] | %195
({/B,,E,)G,} (3(!^!B,GF (3E=DC (3B,A,G,) |{/B,,} (3F,CB, (3A,G,F, (3E,=D,C, | %197
({/E,,B,,)} !^!G,3[K:treble] ([GB][EG][B,E]) | %198
[K:bass]({/B,,=D,)} !^!B,3[K:treble] ([Ac][FA][=DF]) |[K:bass] (3(G,FE (3=DC=B, (3A,G,F,) | %200
 !^![C,E,]3 ([G,C][E,G,][C,E,]) | (3z (_DC (3B,A,G, (3F,E,D,) | %202
 (3(C,B,,A,, (3G,,F,,E,, (3=D,,_D,,C,,) |!ped! [B,,,B,,]6-!ped-up! | [B,,,B,,]2 z2 z2 | z6 | %206
 !>![A,,C,]6 | (D,4 _F,>E, | D,6) | [A,,E,]4 [A,,E,]2 | ([E,,E,]6 |{/D,,} D,6 | %212
 A,,) z z2 (.[F,,C,]2 | .[C,,C,]2) z2 [A,,_E,A,]2 | [E,,B,,E,]6 | [B,,,B,,]4 [B,,F,B,]2 | %216
 [F,,C,F,]6 | [E,,E,]4 z2 | (D,2 E,2 B,2) | (C,E,A,C- C2) | (B,2 E,2 B,2) | (C,E,A,C) _C2 | %222
 [_G,,D,_G,]6 | [F,,F,]6 | [=E,,=B,,=E,]6 | !fermata![_E,,_E,]4 [E,A,C]2 | %226
!ped! (E,G, B,2 D2)!ped-up! |!ped! (E,G, C4)!ped-up! |!ped! (E,G, B,4)!ped-up! | %229
 A,A,,A,,A,,A,,A,, | A,,A,,A,,A,,A,,A,, |!ped! !>![A,,,A,,]6!ped-up! | (B,2 G,3 E,) | %233
 [A,,E,][A,,,A,,][A,,,A,,][A,,,A,,][A,,,A,,][A,,,A,,] | A,,A,,A,,A,,A,,A,, | %235
!ped! (3z (FE (3=DCB,!ped! (3A,G,F,)!ped-up! |!ped! (3:2:2([E,,E,]2 F, (3G,A,B, (3CD=D!ped-up! | %237
 (3E_DB, (3A,G,F (3EDC | (3B,G,E, (3D,B,,G,, (3A,,B,,C, | (3D,=D,E, (3=E,F,_E, (3G,F,D,) | %240
 (3([A,,C,]A,,,A,, (3A,,,A,,A,,, (3A,,A,,,A,,) | (F,4 G,2 | A,2 _G,2 F,2 | _F,4 [E,G,]2 | %244
 [E,A,]2) !^!_G,2 z2 | ([_F,=G,]6 | [E,A,]2 =E,2 F,2 | D,4 _F,2 | [C,E,]2) z2 [E,B,D]2 | %249
 [A,,E,A,]2!p! z2 _F,2 |!ped!!<(! [C,E,A,]4!ped-up! x2!<)! | A,3 CEC | z6 | x2 z2 (.A,2 | %254
 .E2) z2 (.[C,E,]2 | .[A,C]2) z2 z2 | [C,E,A,]2 z2 z2 | [C,E,A,]4 !fermata!z2 |] %258
V:3
 x2 | E,6 | F,4 G,>A, | =F,6 | !fermata![E,A,]4 x2 | x6 | (A,,6 | F,,4 G,,) z | C,6 | x6 | %10
 z2 z2 (E,2 | C,4) z2 | x4 (G,2 | B,4)[K:treble] B,2 | [B,D]4 D2 | C4 F2 | x6 | x6 | %18
 =e2 x2 (.[ce]2 | .[gc']3) x[K:bass] x2 | x6 | A,,6 | F,,4 z2 | x6 | [C,E,]6 | [D,_F,]4 D,2 | %26
 [D,_F,]6 | [E,_G,__B,]4 [C,G,]2 | [C,_G,]2 A,4- | A,2 z2 ([C,_G,]2 | D,2) D4 | z2 z2 F,2 | %32
 _G,2[K:treble] [_G,C]4 | [_G,C]4 [G,C]2 | [A,D]4 ([A,DF]2 | [B,E]2) z2 [E_G]2- | %36
 [EG]2 [E_G]2 [EG]2- | [EG]2 [E^F]2 F2 |{/C} ^F2 x4 ||[K:C] x6 | x6 | x6 | x6 | x6 | x6 | x6 | %46
 [fb]4 z2 | x6 | x6 | x6 | x6 | x6 | x6 | x6 | x6 | x6 | x6 | x6 | x6 | x6 | x6 | x6 | x6 | x6 | %64
 B2 c2 B2 | x6 | B2 ^c2 d2 | x6 | x6 | (G3 A/_A/ G/^F/=F/E/) | x6 | x6 | x6 | x6 | x6 ||[K:Ab] x6 | %76
 x6 | x6 | x6 | x6 | x6 | x4 [B,D]2 | x4 F2 | x6 | x6 | x6 | x6 | x6 | x6 | x6 |[K:bass] x6 || %91
[M:2/4] x4 | x2[K:treble] x2 | x4 | x4 | x4 | x4 | x4 | x4 | x4 | x4 | x4 | x4 | x4 | x4 | x4 | %106
 x4 | x4 | x4 | x4 | x4 | x4 | x4 | x4 | x4 | x4 | x4 | x4 | x4 | x4 | x4 | x4 | x4 | x4 | x4 | %125
 x4 | x4 | x4 | x4 | x4 | x4 | x4 | x4 | x4 | x4 | x4 | x4 |!8va(! x4 | x2!8va)! x2 |[K:bass] x4 | %140
[K:treble] x4 | x4 | x4 | x4 | x4 | x4 | x4 | x4 | x4 | x4 | x4 |[K:bass] x4 | x4 | x4 | x4 | x4 | %156
 x4 | x2[K:treble] x2 ||[M:3/4] x6 | x4 F2 | (F2 _G2 B2) | !fermata!A4 !>!=G2 | _G4 F2 | %163
 [A,CE_G]4 x2 | x6 | x6 | x6 | x6 | x6 | x6 | x6 | x6 | x6 | x6 | x6 | x6 | x6 | x6 | x6 | x6 | %180
 x6 | x6 |!8va(! x6 | x2!8va)! x4 | x6 | x6 | [FA]3 x3 | x6 | G3 x3 | x6 | x6 | x6 | x6 | x6 | x6 | %195
 x6 | x6 | x6 | x6 | x6 | x6 | x6 |[K:bass] x6 | [E,G,D]6 | x6 | x6 | (!>!E,6 | F,4 G,>A, | =F,6 | %209
 A,4) (A,2 | G,4"_dim." _G,2 | F,4 _F,2 | E,) z z2 (.F,2 | .[=E,G,]2) z2[K:treble] A2 | G4 _G2 | %215
 [DF]4 B2 | A6 | [EGB]4 z2 | (F2 G2 E2) | x6 | (F2 G2 E2) |{/E} A4 A2 | x2 B4 | [F=Ac]4 A2 | %224
 [=E^G]6 | !fermata![_D=G_B]4 [EA]2 |{/E} G6 | A6 | c2 dBF>G | x6 | [CE]6 | [D_FB]6 | x6 | x6 | %234
 [Ace]6 | [B=df]6 | x6 | x6 | x6 | x6 | x6 | x6 | x6 | x6 | x6 | x6 | x6 | x6 | x4 [EG]2 | %249
 [EA]2 x4 | x6 | x6 | c2 x2 (.A2 | .e2) x4 | x6 | x6 | x6 | x6 |] %258
V:4
 x2 | A,,6 | A,,6- | A,,6 | x6 | x6 | x6 | x6 | x6 | x6 | x6 | x6 | x6 | E,,3 z x2 | x6 | x6 | x6 | %17
 x6 | x6 | x6 | x6 | x6 | x6 | x6 | A,,,6- | x6 | A,,,6- | x6 | A,,,6- | A,,,2 A,,,2 A,,,2 | %30
 A,,,6- | A,,,2 A,,,2 A,,,2 | A,,,6 | A,,,6 | A,,,6 | A,,,6 | A,,,2 A,,,2 A,,,2 | x6 | x6 || %39
[K:C] G,6- | G,4 z2 | G,6- | G,4 z2 | F,4 z2 | x6 | x6 | x6 | ^G,4 z2 | E,4 z2 | A,4 z2 | C,4 z2 | %51
 D,6 | D,6 | x6 | x6 | x6 | x6 | x6 | x6 | x6 | x6 | x6 | x6 | x6 | G,6 | G,6 | G,6 | x6 | x6 | %69
 x6 | x6 | x6 | x6 | x6 | x6 ||[K:Ab] x6 | x6 | x6 | x6 | x6 | E,,3 z z2 | x6 | %82
 x2 F,,2- [F,,A,,]2 | x6 | x6 | x6 | x6 | [B,,D,_G,]2 x4 | x6 | x6 | x6 ||[M:2/4] x4 | x4 | %93
 F,,2 =D,2 | E,2 C,2 | A,,2 B,,2 |{/_D,,} _D,2 C,2 | F,,2 =D,2 | =B,,2 C,2 | A,,2 F,,2 | %100
 D,,2 B,,2 | C,2 F,,2 | D,,2 E,,2 | A,,2 z2 | F,,2 G,,2 | A,,/C,/E,/A,/ F,2 | G,2 E,2 | %107
 =E,/G,/C/=E/{/E,,} C,/E,/G,/C/ | F,,/A,,/C,/F,/ =D,/F,/A,/=D/ | E,/G,/B,/E/ C,/E,/A,/C/ | %110
 A,,/C,/F,/A,/ B,,/=D,/F,/B,/ | C,/E,/A,/C/ A,,/C,/E,/A,/ | F,,2 G,,2 | A,,2 F,,2 | %114
{/D,,} D,/F,/B,/D/{/E,,} E,/G,/B,/E/ | A,,/C,/E,/A,/ F,,/A,,/C,/F,/ | x4 | %117
 A,,/C,/E,/A,/ =A,,/C,/E,/=A,/ | ^F,,/=A,,/C,/^F,/{/=D,,} =D,/F,/=A,/=D/ | %119
{/^D,,} ^D,/^F,/=B,/^D/{/=B,,,} =B,,/=D,/F,/B,/ |{/C,,} C,/=E,/G,/C/{/=B,,,} =B,,/E,/G,/=B,/ | %121
 ^A,,2 _G,,2 | =G,,2 E,,2 | =E,,2 C,,2 | F,,2 F,,2 | G,,2 E,,2 | A,,/C,/E,/A,/ F,,/=A,,/C,/F,/ | %127
 B,,/D,/F,/_G,/ C,/E,/G,/A,/ | D,/F,/=A,/B,/ E,/_G,/B,/_C/ | F,/A,/=C/D/ _G,/B,/=D/E/ | %130
 _G,/=A,/C/E/ x2 |{/^D,,} ^D,/^F,/=A,/=F,/ x2 |{/^D,,} ^D,/^F,/=A,/F,/ x2 | %133
{/^F,,} ^F,/=A,/C/A,/ x2 |{/^F,,} ^F,/=A,/C/A,/ x2 |{/=A,,} =A,/C/E/C/ x2 |{/=A,,} =A,/C/E/C/ x2 | %137
 x4 | x4 | x4 | x4 | x4 | z4 | x4 | x4 | x4 | G,,4 | x4 | x4 | x2 z (3G,,/E,,/C,,/ | x4 | x4 | x4 | %153
 x4 | x4 | x4 | x4 | x4 ||[M:3/4] _G,,6 | x6 | (B,2 _G,2 E,2) | !fermata!B,4 B,__B, | A,6 | x6 | %164
 A,6 | (3:2:2A,2 A,,, x4 | =A,4 z2 | F,4 z2 | B,,4 z2 | [D,,D,]4 z2 | E,6 | F,6 | [A,,A,]6 | x6 | %174
 A,2 A,2 _G,2 | F,2 F,2 D,2 | A,,2 A,,2 _G,,2 | x6 | x6 | B,,2 z2 z2 | F,2 F,2 E,2 | D,2 D,2 D,2 | %182
{/C,,} C,2 C,2 C,2 | B,,6 | x6 | B,,4 z2 | x2 z4 |{/E,} [B,,G,]4 z2 | x2 z4 | B,,4 z2 | x2 z4 | %191
 x6 | x6 | x6 | x6 | x6 | x6 | x3[K:treble] x3 |[K:bass] x3[K:treble] x3 |[K:bass] !^!G,3 z z2 | %200
 x6 | [B,,_D,]3 z z2 | E,,3 x3 | x6 | x6 | x6 | x6 | A,,6- | A,,6 | x6 | x6 | x6 | x6 | x6 | x6 | %215
 x6 | x6 | x6 | D,6 | C,6 | (B,,2 D,4) | C,4 [_C,E,A,]2 | x6 | x6 | x6 | x6 |{/E,,} E,6 | %227
{/E,,} E,6 |{/E,,} E,6 | A,, z A,,,2 A,,,2 | A,,,6 | x6 | [A,,D,E,]6 | x6 | A,,,6 |{/A,,,} A,,6 | %236
 x6 | x6 | x6 | x6 | x6 | (3A,,,A,,A,,, (3A,,A,,,A,, (3A,,,A,,A,,, | %242
 (3A,,A,,,A,, (3A,,,A,,A,,, (3A,,A,,,A,, | (3A,,,A,,A,,, (3A,,A,,,A,, (3A,,,A,,A,,, | %244
 (3A,,A,,,A,, (3A,,,!p!A,,A,,, (3A,,A,,,A,, | (3A,,,A,,A,,, (3A,,A,,,A,, (3A,,,A,,A,,, | %246
 (3A,,A,,,A,, (3A,,,A,,A,,, (3A,,A,,,A,, | (3A,,,A,,A,,, (3A,,A,,,A,, (3A,,,A,,A,,,- | %248
 [A,,,A,,]2 x4 | x2 [A,,,A,,]4 | A,,,C,,E,,A,,C,E, | x6 | x6 | x6 | x4 (.A,,2 | .E,2) x4 | %256
 [A,,,A,,]2 x4 | [A,,,A,,]4 x2 |] %258
V:5
 x2 | x6 | x6 | x6 | x6 | x6 | x6 | x6 | x6 | x6 | x6 | x6 | x6 | x6 | x6 | x6 | x6 | x6 | x6 | %19
 x6 | x6 | x6 | x6 | x6 | x6 | x6 | x6 | x6 | x6 | x6 | x6 | x6 | x6 | x6 | x6 | x6 | x6 | x6 | %38
 x6 ||[K:C] x6 | x6 | x6 | x6 | x6 | x6 | x6 | x6 | x6 | x6 | x6 | x6 | x6 | x6 | x6 | x6 | x6 | %56
 x6 | x6 | x6 | x6 | x6 | x6 | x6 | x6 | x6 | x6 | x6 | x6 | x6 | x6 | x6 | x6 | x6 | x6 | x6 || %75
[K:Ab] x6 | x6 | x6 | x6 | x6 | x6 | x6 | x6 | x6 | x6 | x6 | x6 | x6 | x6 | x6 | x6 ||[M:2/4] x4 | %92
 x4 | x4 | x4 | x4 | x4 | x4 | x4 | x4 | x4 | x4 | x4 | x4 | x4 | x4 | x4 | x4 | x4 | x4 | x4 | %111
 x4 | x4 | x4 | x4 | x4 | x4 | x4 | x4 | x4 | x4 | x4 | x4 | x4 | x4 | x4 | x4 | x4 | x4 | x4 | %130
 x4 | x4 | x4 | x4 | x4 | x4 | x4 | x4 | x4 | x4 | x4 | x4 | x4 | x4 | x4 | x4 | x4 | x4 | x4 | %149
 x4 | x4 | x4 | x4 | x4 | x4 | x4 | x4 | x4 ||[M:3/4] x6 | x6 | x6 | x6 | x6 | x6 | x6 | x6 | x6 | %167
 x6 | x6 | x6 | x6 | x6 | x6 | x6 | x6 | x6 | x6 | x6 | x6 | x6 | x6 | x6 | x6 | x6 | x6 | x6 | %186
 x6 | x6 | x6 | x6 | x6 | x6 | x6 | x6 | x6 | x6 | x6 | x3[K:treble] x3 |[K:bass] x3[K:treble] x3 | %199
[K:bass] x6 | x6 | x6 | x6 | x6 | x6 | x6 | x6 | x6 | x6 | x6 | x6 | x6 | x6 | x6 | x6 | x6 | x6 | %217
 x6 | x6 | x6 | x6 | x6 | x6 | x6 | x6 | x6 | x6 | x6 | x6 | x6 | x6 | x6 | x6 | x6 | x6 | x6 | %236
 x6 | x6 | x6 | x6 | x6 | x6 | x6 | x6 | x6 | x6 | x6 | D,6 | x6 | x6 | x6 | x6 | x6 | x6 | x6 | %255
 x6 | x6 | x6 |] %258

